!!!COM: Clementi, Muzio
!!!CDT: 1752/01/23/-1832/03/10/
!!!ODT: ~1800///
!!!OTL: Sonata No. 1 in C Major, Op. 36, Mvmt. 1
!!!OPS: Op. 36
!!!ONM: No. 1
!!!OMV: 1. Allegro
**kern	**kern	**dynam
*staff2	*staff1	*staff1/2
*Ipiano	*Ipiano	*Ipiano
*clefF4	*clefG2	*clefG2
*k[]	*k[]	*k[]
*C:	*C:	*C:
*met(C)	*met(C)	*met(C)
*M4/4	*M4/4	*M4/4
*MM152	*MM152	*MM152
=1-	=1-	=1-
4C/	4cc\	f
4r	8ee\L	.
.	8cc\J	.
2r	4g/	.
.	4g/	.
=2	=2	=2
4C/	4cc\	.
4r	8ee\L	.
.	8cc\J	.
2r	4g/	.
.	4gg\	.
=3	=3	=3
4C/	8ff\L	.
.	8ee\	.
4r	8dd\	.
.	8cc\J	.
4C/	8b\L	.
.	8cc\	.
4r	8b\	.
.	8cc\J	.
=4	=4	=4
4GG/	8dd\L	.
.	8cc\	.
4r	8b\	.
.	8a\J	.
8G\L	4g/	.
8F\	.	.
8E\	4r	.
8D\J	.	.
=5	=5	=5
4C/	4cc\	p
4r	8ee\L	.
.	8cc\J	.
2r	4g/	.
.	4g/	.
=6	=6	=6
4c\	4ee\	.
4r	8gg\L	.
.	8ee\J	.
4r	4cc\	.
4F#\	8ee\L	.
.	8cc\J	.
=7	=7	=7
4G\	8dd\L	.
.	8b\	.
4C/	8cc\	.
.	8a\J	.
4D\	8b/L	.
.	8g/	.
4DD/	8a/	.
.	8f#/J	.
=8	=8	=8
4GG/	8g/L	f
.	8a/	.
4r	8b/	.
.	8cc/J	.
2r	8dd\L	.
.	8ee\	.
.	8ff#\	.
.	8gg\J	.
=9	=9	=9
8F#\L	4a/	.
8d\	.	.
8A\	4aa\	.
8d\J	.	.
8F#\L	4aa\	.
8d\	.	.
8A\	4aa\	.
8d\J	.	.
=10	=10	=10
4G\	8b\L	.
.	8cc\	.
4r	8dd\	.
.	8ee\J	.
2r	8ff#\L	.
.	8gg\	.
.	8aa\	.
.	8bb\J	.
=11	=11	=11
8A\L	4cc\	.
8d\	.	.
8c\	4ccc\	.
8d\J	.	.
8A\L	4ccc\	.
8d\	.	.
8c\	4ccc\	.
8d\J	.	.
=12	=12	=12
4B\	8dd\L	.
.	8gg\	.
4r	8bb\	.
.	8ddd\J	.
2r	8ccc\L	.
.	8bb\	.
.	8aa\	.
.	8gg\J	.
=13	=13	=13
4c\	8ff#\L	.
.	8ee\	.
4r	8gg\	.
.	8ff#\J	.
4C/	8aa\L	.
.	8gg\	.
4r	8ff#\	.
.	8ee\J	.
=14	=14	=14
4D\	8ee\L	.
.	8dd\	.
4r	8cc\	.
.	8b\J	.
4DD/	8dd\L	.
.	8cc\	.
4r	8b\	.
.	8a\J	.
=15	=15	=15
8GG/L	2g/	.
8BB/	.	.
8D/	.	.
8G/J	.	.
4GG/	2r	.
4r	.	.
=16:|!|:	=16:|!|:	=16:|!|:
1f	4b\	p
.	8dd\L	.
.	8b\J	.
.	4g/	.
.	4g/	.
=17	=17	=17
1e-	4cc\	.
.	8ee-\L	.
.	8cc\J	.
.	4g/	.
.	4gg\	.
=18	=18	=18
2B\	4ff\	.
.	4dd\	.
2c\	4ee-\	.
.	4cc\	.
=19	=19	=19
2G\	8b\L	.
.	8cc\	.
.	8dd\	.
.	8b\J	.
2r	4g/	.
.	4g/	.
=20	=20	=20
4f\	8gg\L	f
.	8g\	.
4G\	8gg\	.
.	8g\J	.
4d\	8gg\L	.
.	8g\	.
4G\	8gg\	.
.	8g\J	.
=21	=21	=21
4e-\	8gg\L	.
.	8g\	.
4G\	8gg\	.
.	8g\J	.
4c\	8gg\L	.
.	8g\	.
4G\	8gg\	.
.	8g\J	.
=22	=22	=22
4B\	8dd\L	.
.	8ee-\	.
4r	8ff\	.
.	8dd\J	.
4c\	8ff\L	.
.	8ee-\	.
4r	8dd\	.
.	8cc\J	.
=23	=23	=23
4G\	4b\ 4gg\	.
4GG/	4r	.
8G\L	2r	.
8F\	.	.
8En\	.	.
8D\J	.	.
=24	=24	=24
4C/	4c/	p
4r	8e/L	.
.	8c/J	.
2r	4G/	.
.	4G/	.
=25	=25	=25
4C/	4c/	.
4r	8e/L	.
.	8c/J	.
2r	4G/	.
.	4g/	.
=26	=26	=26
4C/	8f/L	.
.	8e/	.
4r	8d/	.
.	8c/J	.
4C/	8B/L	.
.	8c/	.
4r	8B/	.
.	8c/J	.
=27	=27	=27
4GG/	8d/L	.
.	8c/	.
4r	8B/	.
.	8A/J	.
8GG/L	4G/	.
8FF/	.	.
8EE/	4r	.
8DD/J	.	.
=28	=28	=28
4CC/	4c/	.
4r	8G/L	.
.	8c/J	.
2r	4e/	.
.	4e/	.
=29	=29	=29
4C/	4e/	<
4r	8c/L	.
.	8e/J	.
2r	4g/	.
.	4cc\	.
=30	=30	=30
4G\	4e'/ 4g'/	.
4r	4d'/ 4f'/	.
4GG/	4c'/ 4e'/	.
4r	4B'/ 4d'/	.
=31	=31	=31
4C/	8c/L	f
.	8d/	.
4r	8e/	.
.	8f/J	.
2r	8g/L	.
.	8a/	.
.	8b/	.
.	8cc/J	.
=32	=32	=32
8BB\L	4d/	.
8G\	.	.
8D\	4dd\	.
8G\J	.	.
8BB\L	4dd\	.
8G\	.	.
8D\	4dd\	.
8G\J	.	.
=33	=33	=33
4C/	8e/L	.
.	8f/	.
4r	8g/	.
.	8a/J	.
2r	8b\L	.
.	8cc\	.
.	8dd\	.
.	8ee\J	.
=34	=34	=34
8D\L	4f/	.
8G\	.	.
8F\	4ff\	.
8G\J	.	.
8D\L	4ff\	.
8G\	.	.
8F\	4ff\	.
8G\J	.	.
=35	=35	=35
4E\	8g\L	.
.	8cc\	.
4r	8ee\	.
.	8gg\J	.
2r	8ff\L	.
.	8ee\	.
.	8dd\	.
.	8cc\J	.
=36	=36	=36
4F\	8aa\L	.
.	8gg\	.
4r	8ff\	.
.	8ee\J	.
4F\	8dd\L	.
.	8cc\	.
4r	8b\	.
.	8a\J	.
=37	=37	=37
4G\	8g/L	.
.	8a/	.
4r	8f/	.
.	8g/J	.
4GG/	8e/L	.
.	8f/	.
4r	8d/	.
.	8e/J	.
=38	=38	=38
8CC/L	4c/	.
8EE/	.	.
8GG/	4r	.
8C/J	.	.
4CC/	2r	.
4r	.	.
==:|!	==:|!	==:|!
*-	*-	*-
!!!ENC: Craig Stuart Sapp
!!!ENC: 2004/11/26/
